X: 38908
T: Suomalainen Polkka
R: polka
M: 2/4
K: Aminor
|:"Am"ee/f/ e/d/c/B/|AA/c/ AA/c/|"E7"BE E/^G/B|"Am"c/B/A/^G/ A/B/c/d/|
"Am"ee/f/ e/d/c/B/|AA/c/ AA/c/|"E7"BE E/^G/B|"Am"c/B/A A2:|
|:"Am"cE "E7"BE|"Am"A/B/c/B/ "E7"EB|"Am"cE "E7"BE|"Am"A/B/c/B/ "E7"EB|
"Am"cE "E7"BE|"Am"Ac/e/ aa|"E7"^g/b/g/^f/ ef/g/|"Am"aa a2:|

